X: 20502
M: C|
L: 1/8
K: F
cB |\
fcAc fagf | gece gbag |
afge fdgf | e2c2 c2fe |\
dcBA B2ba | gfed c2BA |\


